svgs/solid/sun-bright.svg

<svg xmlns="http://www.w3.org/2000/svg" viewBox="0 0 512 512"><!--! Font Awesome Pro 6.1.2 by @fontawesome - https://fontawesome.com License - https://fontawesome.com/license (Commercial License) Copyright 2022 Fonticons, Inc. --><path d="M120.2 154.2c4.672 4.688 10.83 7.031 16.97 7.031S149.5 158.9 154.2 154.2c9.375-9.375 9.375-24.56 0-33.93L108.9 74.97c-9.344-9.375-24.56-9.375-33.94 0s-9.375 24.56 0 33.94L120.2 154.2zM256 112c13.25 0 24-10.75 24-24v-64C280 10.75 269.3 0 256 0S232 10.75 232 24v64C232 101.3 242.8 112 256 112zM112 256c0-13.25-10.75-24-24-24h-64C10.75 232 0 242.8 0 256s10.75 24 24 24h64C101.3 280 112 269.3 112 256zM374.8 161.2c6.141 0 12.3-2.344 16.97-7.031l45.25-45.28c9.375-9.375 9.375-24.56 0-33.94s-24.59-9.375-33.94 0l-45.25 45.28c-9.375 9.375-9.375 24.56 0 33.93C362.5 158.9 368.7 161.2 374.8 161.2zM256 400c-13.25 0-24 10.75-24 24v64C232 501.3 242.8 512 256 512s24-10.75 24-24v-64C280 410.8 269.3 400 256 400zM120.2 357.8l-45.25 45.28c-9.375 9.375-9.375 24.56 0 33.94c4.688 4.688 10.83 7.031 16.97 7.031s12.3-2.344 16.97-7.031l45.25-45.28c9.375-9.375 9.375-24.56 0-33.93S129.6 348.4 120.2 357.8zM488 232h-64c-13.25 0-24 10.75-24 24s10.75 24 24 24h64C501.3 280 512 269.3 512 256S501.3 232 488 232zM391.8 357.8c-9.344-9.375-24.56-9.372-33.94 .0031s-9.375 24.56 0 33.93l45.25 45.28c4.672 4.688 10.83 7.031 16.97 7.031s12.28-2.344 16.97-7.031c9.375-9.375 9.375-24.56 0-33.94L391.8 357.8zM256 144C194.1 144 144 194.1 144 256c0 61.86 50.14 112 112 112s112-50.14 112-112C368 194.1 317.9 144 256 144z"/></svg>

<svg xmlns="http://www.w3.org/2000/svg" viewBox="0 0 512 512"><!--! Font Awesome Pro 6.2.0 by @fontawesome - https://fontawesome.com License - https://fontawesome.com/license (Commercial License) Copyright 2022 Fonticons, Inc. --><path d="M256 0c-13.3 0-24 10.7-24 24V88c0 13.3 10.7 24 24 24s24-10.7 24-24V24c0-13.3-10.7-24-24-24zm0 400c-13.3 0-24 10.7-24 24v64c0 13.3 10.7 24 24 24s24-10.7 24-24V424c0-13.3-10.7-24-24-24zM488 280c13.3 0 24-10.7 24-24s-10.7-24-24-24H424c-13.3 0-24 10.7-24 24s10.7 24 24 24h64zM112 256c0-13.3-10.7-24-24-24H24c-13.3 0-24 10.7-24 24s10.7 24 24 24H88c13.3 0 24-10.7 24-24zM437 108.9c9.4-9.4 9.4-24.6 0-33.9s-24.6-9.4-33.9 0l-45.3 45.3c-9.4 9.4-9.4 24.6 0 33.9s24.6 9.4 33.9 0L437 108.9zM154.2 357.8c-9.4-9.4-24.6-9.4-33.9 0L75 403.1c-9.4 9.4-9.4 24.6 0 33.9s24.6 9.4 33.9 0l45.3-45.3c9.4-9.4 9.4-24.6 0-33.9zM403.1 437c9.4 9.4 24.6 9.4 33.9 0s9.4-24.6 0-33.9l-45.3-45.3c-9.4-9.4-24.6-9.4-33.9 0s-9.4 24.6 0 33.9L403.1 437zM154.2 154.2c9.4-9.4 9.4-24.6 0-33.9L108.9 75c-9.4-9.4-24.6-9.4-33.9 0s-9.4 24.6 0 33.9l45.3 45.3c9.4 9.4 24.6 9.4 33.9 0zM256 368c61.9 0 112-50.1 112-112s-50.1-112-112-112s-112 50.1-112 112s50.1 112 112 112z"/></svg>
